X:17
T:John O'Dwyer Of The Glen
R:hornpipe
H:A mangled version of the set dance "Se\'an \'O Duibhir an Ghleanna"
H:see setdance#3
D:Paddy Moloney & Sean Potts: Tin Whistles
Z:id:hn-hornpipe-17
M:C|
K:Amix
fg|adfa gefe|dcAG A2AB|cdec A2 (3AGF|(3GFG AA A2:|
B2|(3BcB cA (3Bcd ef|gfec d2 (3bc'b|agec ddec|dcAB G2fg|
adfa gefe|dcAG A2AB|cdec A2 (3AGF|(3GFG AA A2||
<end>
<start>
